X:5243
T:President Lincoln's Hornpipe
O:england
C:Harry Carleton (19th century American)
N:Can be found in Cole's as Lincoln's Hornpipe.
N:Recorded by Jay Ungar & Molly Mason On "Civil War Classics"
N:Jay plays it with a bit of Scottish flavor.
M:C
K:A
(3EFG | A2 c>A E>Ac>A | G>AB>G A2 c2 | f>ed>c d>cB>A | G>AB>G E>dc>B |
A2 c>A E>Ac>A | G>AB>G A2 c2 | d>fe>d c>BA>G | A2 c2 A2 :||: c>d |
e>Ac>e a>gf>e | G>AB>c d>EF>G | A,>CE>A F>dB>A | G>AB>G E2 c>d |
e>Ac>e a>gf>e | f>Bd>f b>ag>f | c>eA>c B>dG>B | A2 c2 A2 :|


